;Sliced by ideaMaker 4.0.1.4802, 2021-03-02 18:33:38 UTC-0500
;Dimension: 305.000 305.000 300.000 0.400 0.400
;Plate Shape: 0
;Origin Center: 0
;Extruder Offset #1: 0.000 0.000
;Filament Diameter #1: 1.750
;Filament Diameter #2: 1.750
;Filament Compensation #1: 90.00
;Filament Compensation #2: 90.00
;Filament Density #1: 1240.00
;Filament Density #2: 1240.00
;Bounding Box: 137.504 167.496 54.660 247.503 0.000 21.820
;Model Gap: 0.150
M221 T0 S90.00
M140 S60.00
M104 T0 S205.00
M109 T0 S205.00
T0
M190 S60.00
G21
G90
M82
M107
G28 X0 Y0
G28 Z0
G1 Z15.0 F300
G92 E0
G1 F140 E29
G1 X20 Y0 F140 E30
G92 E0
G1 F6000.0
M117 Printing...
M1001
;TOTAL_NUM: 4
;PRINTING_TIME: 0
;REMAINING_TIME: 4129
M106 S0
;LAYER:-2
;Z:0.500
;HEIGHT:0.500
;PRINTING: NON-OBJECT
;PRINTING_ID: -1
G0 F6000 X145.985 Y58.032
G0 F300 Z0.500
;TYPE:RAFT
;WIDTH:0.800
G1 F480 X146.184 Y57.580 E0.0821
G1 X146.445 Y57.131 E0.1685
G1 X146.669 Y56.819 E0.2324
G1 X147.098 Y56.345 E0.3387
G1 X147.508 Y55.996 E0.4282
G1 X147.801 Y55.792 E0.4876
G1 X148.397 Y55.469 E0.6003
G1 X148.871 Y55.287 E0.6848
G1 X149.233 Y55.187 E0.7472
G1 X149.758 Y55.094 E0.8359
G1 X150.332 Y55.060 E0.9315
G1 X154.779 Y55.063 E1.6711
G1 X155.150 Y55.084 E1.7329
G1 X155.685 Y55.165 E1.8228
G1 X156.180 Y55.300 E1.9082
G1 X156.811 Y55.564 E2.0219
G1 X157.255 Y55.822 E2.1073
G1 X157.664 Y56.125 E2.1920
G1 X158.047 Y56.482 E2.2790
G1 X158.295 Y56.764 E2.3415
G1 X158.676 Y57.310 E2.4522
G1 X158.918 Y57.775 E2.5394
G1 X159.100 Y58.249 E2.6238
G1 X159.200 Y58.611 E2.6863
G1 X159.293 Y59.133 E2.7745
G1 X159.327 Y59.697 E2.8684
G1 X159.328 Y60.561 E3.0121
G1 X159.303 Y61.098 E3.1015
G1 X159.191 Y61.760 E3.2132
G1 X159.041 Y62.245 E3.2976
G1 X158.821 Y62.750 E3.3892
G1 X158.657 Y63.045 E3.4453
G1 X158.348 Y63.491 E3.5355
G1 X158.020 Y63.866 E3.6184
G1 X157.635 Y64.219 E3.7053
G1 X157.074 Y64.611 E3.8191
G1 X156.612 Y64.852 E3.9057
G1 X156.129 Y65.037 E3.9918
G1 X155.632 Y65.165 E4.0771
G1 X155.120 Y65.240 E4.1632
G1 X154.666 Y65.260 E4.2387
G1 X150.348 Y65.260 E4.9568
G1 X149.674 Y65.214 E5.0692
G1 X149.183 Y65.123 E5.1522
G1 X148.669 Y64.963 E5.2417
G1 X148.354 Y64.831 E5.2985
G1 X147.883 Y64.579 E5.3874
G1 X147.444 Y64.275 E5.4762
G1 X147.064 Y63.941 E5.5603
G1 X146.710 Y63.552 E5.6478
G1 X146.411 Y63.137 E5.7328
G1 X146.155 Y62.680 E5.8199
G1 X145.951 Y62.194 E5.9076
G1 X145.810 Y61.713 E5.9909
G1 X145.702 Y61.037 E6.1048
G1 X145.682 Y60.600 E6.1775
G1 X145.686 Y59.602 E6.3435
G1 X145.728 Y59.051 E6.4354
G1 X145.819 Y58.563 E6.5180
G1 X145.985 Y58.032 E6.6105
G0 F6000 X151.056 Y127.362
G1 F480 X152.350 Y127.291 E6.8260
G1 X153.352 Y127.317 E6.9927
G1 X154.408 Y127.418 E7.1691
G1 X155.196 Y127.541 E7.3017
G1 X155.807 Y127.670 E7.4056
G1 X157.034 Y128.012 E7.6174
G1 X157.907 Y128.329 E7.7719
G1 X158.788 Y128.714 E7.9318
G1 X159.676 Y129.177 E8.0983
G1 X160.442 Y129.640 E8.2472
G1 X160.978 Y130.005 E8.3550
G1 X161.714 Y130.566 E8.5089
G1 X162.685 Y131.430 E8.7250
G1 X163.148 Y131.903 E8.8351
G1 X163.982 Y132.875 E9.0481
G1 X164.365 Y133.384 E9.1540
G1 X164.877 Y134.148 E9.3070
G1 X165.358 Y134.978 E9.4665
G1 X165.912 Y136.125 E9.6783
G1 X166.164 Y136.751 E9.7906
G1 X166.552 Y137.932 E9.9973
G1 X166.772 Y138.823 E10.1499
G1 X166.900 Y139.495 E10.2637
G1 X167.052 Y140.741 E10.4724
G1 X167.096 Y141.671 E10.6273
G1 X167.091 Y142.339 E10.7384
G1 X167.036 Y143.228 E10.8865
G1 X166.992 Y143.643 E10.9559
G1 X166.859 Y144.520 E11.1034
G1 X166.718 Y145.196 E11.2182
G1 X166.372 Y146.435 E11.4322
G1 X166.061 Y147.293 E11.5839
G1 X165.810 Y147.883 E11.6906
G1 X165.393 Y148.733 E11.8480
G1 X164.879 Y149.618 E12.0182
G1 X164.412 Y150.324 E12.1590
G1 X163.814 Y151.114 E12.3238
G1 X162.950 Y152.081 E12.5394
G1 X162.225 Y152.773 E12.7061
G1 X161.382 Y153.470 E12.8880
G1 X160.797 Y153.898 E13.0085
G1 X160.222 Y154.276 E13.1230
G1 X159.131 Y154.893 E13.3314
G1 X158.240 Y155.311 E13.4951
G1 X157.638 Y155.552 E13.6029
G1 X156.765 Y155.850 E13.7563
G1 X155.507 Y156.172 E13.9723
G1 X154.891 Y156.288 E14.0765
G1 X153.934 Y156.415 E14.2371
G1 X152.650 Y156.485 E14.4509
G1 X151.648 Y156.459 E14.6176
G1 X150.592 Y156.358 E14.7940
G1 X149.815 Y156.237 E14.9248
G1 X149.198 Y156.108 E15.0296
G1 X147.977 Y155.768 E15.2404
G1 X147.138 Y155.465 E15.3887
G1 X146.165 Y155.038 E15.5654
G1 X145.198 Y154.525 E15.7475
G1 X144.541 Y154.125 E15.8754
G1 X143.728 Y153.555 E16.0405
G1 X142.878 Y152.863 E16.2228
G1 X142.313 Y152.345 E16.3503
G1 X141.865 Y151.888 E16.4567
G1 X141.010 Y150.891 E16.6751
G1 X140.474 Y150.162 E16.8256
G1 X140.101 Y149.592 E16.9389
G1 X139.494 Y148.517 E17.1442
G1 X139.084 Y147.644 E17.3046
G1 X138.836 Y147.026 E17.4153
G1 X138.536 Y146.145 E17.5701
G1 X138.276 Y145.171 E17.7377
G1 X138.099 Y144.276 E17.8894
G1 X137.948 Y143.036 E18.0972
G1 X137.904 Y142.103 E18.2525
G1 X137.909 Y141.430 E18.3644
G1 X137.968 Y140.501 E18.5192
G1 X138.143 Y139.246 E18.7300
G1 X138.277 Y138.597 E18.8402
G1 X138.617 Y137.374 E19.0513
G1 X138.919 Y136.537 E19.1993
G1 X139.195 Y135.882 E19.3175
G1 X139.615 Y135.025 E19.4762
G1 X140.136 Y134.134 E19.6478
G1 X140.620 Y133.407 E19.7931
G1 X141.178 Y132.674 E19.9463
G1 X142.042 Y131.703 E20.1624
G1 X142.515 Y131.240 E20.2725
G1 X143.497 Y130.398 E20.4876
G1 X144.225 Y129.862 E20.6379
G1 X144.776 Y129.501 E20.7475
G1 X145.590 Y129.030 E20.9039
G1 X146.710 Y128.488 E21.1108
G1 X147.362 Y128.225 E21.2277
G1 X148.255 Y127.921 E21.3846
G1 X149.438 Y127.615 E21.5878
G1 X150.112 Y127.488 E21.7019
G1 X151.056 Y127.362 E21.8602
G0 F6000 X154.254 Y188.582
G1 F480 X154.906 Y188.624 E21.9689
G1 X155.474 Y188.727 E22.0649
G1 X156.110 Y188.902 E22.1746
G1 X156.772 Y189.166 E22.2931
G1 X157.043 Y189.298 E22.3432
G1 X157.712 Y189.698 E22.4729
G1 X158.178 Y190.052 E22.5702
G1 X158.430 Y190.272 E22.6258
G1 X158.960 Y190.818 E22.7524
G1 X159.397 Y191.386 E22.8715
G1 X159.788 Y192.041 E22.9984
G1 X159.920 Y192.310 E23.0482
G1 X160.154 Y192.881 E23.1509
G1 X160.364 Y193.623 E23.2791
G1 X160.405 Y193.819 E23.3124
G1 X160.500 Y194.536 E23.4327
G1 X160.520 Y194.996 E23.5092
G1 X160.519 Y202.464 E24.7512
G1 X160.493 Y202.966 E24.8348
G1 X160.415 Y203.474 E24.9202
G1 X160.219 Y204.139 E25.0355
G1 X160.018 Y204.598 E25.1189
G1 X159.750 Y205.060 E25.2077
G1 X159.553 Y205.334 E25.2638
G1 X159.198 Y205.739 E25.3534
G1 X158.692 Y206.187 E25.4658
G1 X158.397 Y206.392 E25.5255
G1 X157.942 Y206.649 E25.6124
G1 X157.313 Y206.901 E25.7251
G1 X156.816 Y207.029 E25.8104
G1 X156.286 Y207.103 E25.8994
G1 X155.965 Y207.120 E25.9529
G1 X153.281 Y207.122 E26.3992
G1 X152.607 Y207.076 E26.5116
G1 X152.112 Y206.984 E26.5953
G1 X151.765 Y206.883 E26.6554
G1 X151.131 Y206.618 E26.7697
G1 X150.686 Y206.359 E26.8553
G1 X150.387 Y206.144 E26.9166
G1 X149.896 Y205.701 E27.0265
G1 X149.551 Y205.296 E27.1150
G1 X149.347 Y205.003 E27.1744
G1 X149.024 Y204.407 E27.2871
G1 X148.839 Y203.925 E27.3730
G1 X148.738 Y203.559 E27.4361
G1 X148.566 Y202.755 E27.5729
G1 X148.382 Y202.289 E27.6562
G1 X148.134 Y201.859 E27.7387
G1 X147.825 Y201.471 E27.8212
G1 X147.465 Y201.131 E27.9036
G1 X147.058 Y200.846 E27.9862
G1 X146.613 Y200.624 E28.0689
G1 X146.146 Y200.471 E28.1506
G1 X145.469 Y200.339 E28.2653
G1 X145.118 Y200.236 E28.3262
G1 X144.483 Y199.970 E28.4406
G1 X144.046 Y199.716 E28.5247
G1 X143.621 Y199.401 E28.6127
G1 X143.248 Y199.053 E28.6975
G1 X142.906 Y198.653 E28.7850
G1 X142.698 Y198.354 E28.8456
G1 X142.443 Y197.902 E28.9319
G1 X142.237 Y197.414 E29.0200
G1 X142.094 Y196.925 E29.1047
G1 X142.001 Y196.400 E29.1934
G1 X141.967 Y195.833 E29.2879
G1 X141.967 Y193.237 E29.7196
G1 X142.013 Y192.563 E29.8319
G1 X142.104 Y192.072 E29.9150
G1 X142.264 Y191.558 E30.0045
G1 X142.396 Y191.244 E30.0611
G1 X142.731 Y190.640 E30.1760
G1 X143.032 Y190.234 E30.2600
G1 X143.394 Y189.845 E30.3484
G1 X143.668 Y189.605 E30.4090
G1 X144.091 Y189.300 E30.4957
G1 X144.682 Y188.980 E30.6075
G1 X145.160 Y188.796 E30.6927
G1 X145.671 Y188.663 E30.7805
G1 X146.042 Y188.605 E30.8429
G1 X146.623 Y188.571 E30.9397
G1 X154.254 Y188.582 E32.2087
G0 F6000 X152.780 Y230.281
G1 F480 X153.269 Y230.308 E32.2902
G1 X153.917 Y230.396 E32.3989
G1 X154.816 Y230.599 E32.5522
G1 X155.573 Y230.858 E32.6853
G1 X156.395 Y231.229 E32.8352
G1 X157.014 Y231.590 E32.9544
G1 X157.770 Y232.127 E33.1086
G1 X158.309 Y232.603 E33.2282
G1 X158.909 Y233.236 E33.3732
G1 X159.363 Y233.822 E33.4965
G1 X159.869 Y234.621 E33.6538
G1 X160.195 Y235.280 E33.7761
G1 X160.396 Y235.785 E33.8665
G1 X160.529 Y236.173 E33.9347
G1 X160.716 Y236.856 E34.0524
G1 X160.802 Y237.316 E34.1303
G1 X160.859 Y237.732 E34.2001
G1 X160.912 Y238.503 E34.3286
G1 X160.910 Y238.971 E34.4064
G1 X160.883 Y239.453 E34.4867
G1 X160.780 Y240.185 E34.6097
G1 X160.686 Y240.639 E34.6868
G1 X160.561 Y241.116 E34.7688
G1 X160.333 Y241.764 E34.8830
G1 X159.962 Y242.586 E35.0330
G1 X159.602 Y243.204 E35.1519
G1 X159.064 Y243.961 E35.3064
G1 X158.588 Y244.500 E35.4259
G1 X157.967 Y245.090 E35.5684
G1 X157.407 Y245.526 E35.6864
G1 X157.010 Y245.794 E35.7661
G1 X156.568 Y246.061 E35.8520
G1 X155.911 Y246.386 E35.9738
G1 X155.406 Y246.587 E36.0642
G1 X155.016 Y246.721 E36.1328
G1 X154.320 Y246.911 E36.2528
G1 X153.884 Y246.991 E36.3265
G1 X153.439 Y247.052 E36.4012
G1 X152.689 Y247.103 E36.5262
G1 X152.220 Y247.101 E36.6042
G1 X151.731 Y247.074 E36.6857
G1 X151.083 Y246.986 E36.7944
G1 X150.189 Y246.784 E36.9468
G1 X149.474 Y246.542 E37.0724
G1 X148.607 Y246.155 E37.2303
G1 X147.986 Y245.792 E37.3499
G1 X147.230 Y245.255 E37.5041
G1 X146.692 Y244.780 E37.6234
G1 X146.356 Y244.442 E37.7027
G1 X146.044 Y244.092 E37.7807
G1 X145.598 Y243.504 E37.9034
G1 X145.136 Y242.771 E38.0475
G1 X144.801 Y242.097 E38.1727
G1 X144.604 Y241.598 E38.2619
G1 X144.470 Y241.207 E38.3306
G1 X144.279 Y240.504 E38.4518
G1 X144.198 Y240.066 E38.5258
G1 X144.139 Y239.630 E38.5990
G1 X144.088 Y238.880 E38.7240
G1 X144.090 Y238.409 E38.8024
G1 X144.117 Y237.922 E38.8835
G1 X144.204 Y237.282 E38.9909
G1 X144.318 Y236.727 E39.0851
G1 X144.439 Y236.266 E39.1644
G1 X144.670 Y235.611 E39.2799
G1 X145.044 Y234.783 E39.4310
G1 X145.404 Y234.169 E39.5493
G1 X145.950 Y233.404 E39.7056
G1 X146.414 Y232.880 E39.8220
G1 X146.749 Y232.547 E39.9006
G1 X147.099 Y232.235 E39.9785
G1 X147.687 Y231.789 E40.1013
G1 X148.415 Y231.330 E40.2444
G1 X149.089 Y230.995 E40.3696
G1 X149.594 Y230.795 E40.4599
G1 X149.984 Y230.661 E40.5285
G1 X150.680 Y230.471 E40.6485
G1 X151.116 Y230.391 E40.7222
G1 X151.561 Y230.330 E40.7969
G1 X152.311 Y230.279 E40.9219
G1 X152.780 Y230.281 E40.9999
G0 F6000 X139.380 Y147.415
G1 F480 X139.380 Y136.371 E42.8365
G0 F6000 X141.804 Y132.512
G1 F480 X141.804 Y151.263 E45.9548
G0 F6000 X144.228 Y153.464
G1 F480 X144.228 Y130.306 E49.8060
G0 F6000 X146.652 Y128.915
G1 F480 X146.652 Y154.858 E54.1203
G0 F6000 X149.076 Y155.700
G1 F480 X149.076 Y128.080 E58.7136
G0 F6000 X151.500 Y127.697
G1 F480 X151.500 Y156.083 E63.4342
G0 F6000 X153.924 Y156.053
G1 F480 X153.924 Y127.734 E68.1436
G0 F6000 X156.348 Y128.195
G1 F480 X156.348 Y155.585 E72.6986
G0 F6000 X158.772 Y154.665
G1 F480 X158.772 Y129.113 E76.9479
G0 F6000 X161.196 Y130.624
G1 F480 X161.196 Y153.158 E80.6954
G0 F6000 X163.620 Y150.774
G1 F480 X163.620 Y133.006 E83.6502
G0 F6000 X166.044 Y137.539
G1 F480 X166.044 Y146.272 E85.1025
G0 F6000 X156.348 Y189.385
G1 F480 X156.348 Y206.732 E87.9873
G0 F6000 X153.924 Y206.762
G1 F480 X153.924 Y188.942 E90.9508
G0 F6000 X151.500 Y188.939
G1 F480 X151.500 Y206.382 E93.8516
G0 F6000 X149.076 Y203.420
G1 F480 X149.076 Y188.935 E96.2604
G0 F6000 X146.652 Y188.932
G1 F480 X146.652 Y200.257 E98.1438
G0 F6000 X144.228 Y199.403
G1 F480 X144.228 Y189.645 E99.7665
G0 F6000 X158.772 Y191.165
G1 F480 X158.772 Y205.636 E102.1731
G0 F6000 X153.924 Y230.767
G1 F480 X153.924 Y246.619 E104.8093
G0 F6000 X151.500 Y246.679
G1 F480 X151.500 Y230.700 E107.4666
G0 F6000 X149.076 Y231.402
G1 F480 X149.076 Y245.970 E109.8893
G0 F6000 X146.652 Y244.228
G1 F480 X146.652 Y233.153 E111.7310
G0 F6000 X156.348 Y231.619
G1 F480 X156.348 Y245.769 E114.0842
G0 F6000 X158.772 Y243.748
G1 F480 X158.772 Y233.647 E115.7640
G0 F6000 X153.924 Y64.900
G1 F480 X153.924 Y55.423 E117.3400
G0 F6000 X151.500 Y55.421
G1 F480 X151.500 Y64.900 E118.9164
G0 F6000 X149.076 Y64.713
G1 F480 X149.076 Y55.604 E120.4312
G0 F6000 X146.652 Y57.491
G1 F480 X146.652 Y62.830 E121.3191
G0 F6000 X156.348 Y64.568
G1 F480 X156.348 Y55.760 E122.7839
G0 F6000 X158.772 Y58.417
G1 F480 X158.772 Y61.899 E123.3630
;PRINTING_TIME: 104
;REMAINING_TIME: 4025
M106 S255
;LAYER:-2
;Z:1.000
;HEIGHT:0.500
;PRINTING: NON-OBJECT
;PRINTING_ID: -1
G0 F300 Z1.000
G0 F6000 X159.041 Y62.245
;TYPE:RAFT
;WIDTH:0.800
G1 F960 X158.821 Y62.750 E123.4546
G1 X158.657 Y63.045 E123.5107
G1 X158.348 Y63.491 E123.6009
G1 X158.020 Y63.866 E123.6838
G1 X157.635 Y64.219 E123.7706
G1 X157.074 Y64.611 E123.8844
G1 X156.612 Y64.852 E123.9711
G1 X156.129 Y65.037 E124.0571
G1 X155.632 Y65.165 E124.1425
G1 X155.120 Y65.240 E124.2285
G1 X154.666 Y65.260 E124.3041
G1 X150.348 Y65.260 E125.0222
G1 X149.674 Y65.214 E125.1345
G1 X149.183 Y65.123 E125.2176
G1 X148.669 Y64.963 E125.3071
G1 X148.354 Y64.831 E125.3639
G1 X147.883 Y64.579 E125.4527
G1 X147.444 Y64.275 E125.5415
G1 X147.064 Y63.941 E125.6257
G1 X146.710 Y63.552 E125.7131
G1 X146.411 Y63.137 E125.7982
G1 X146.155 Y62.680 E125.8853
G1 X145.951 Y62.194 E125.9730
G1 X145.810 Y61.713 E126.0563
G1 X145.702 Y61.037 E126.1702
G1 X145.682 Y60.600 E126.2429
G1 X145.686 Y59.602 E126.4089
G1 X145.728 Y59.051 E126.5008
G1 X145.819 Y58.563 E126.5833
G1 X145.985 Y58.032 E126.6759
G1 X146.184 Y57.580 E126.7580
G1 X146.445 Y57.131 E126.8443
G1 X146.669 Y56.819 E126.9082
G1 X147.098 Y56.345 E127.0145
G1 X147.508 Y55.996 E127.1041
G1 X147.801 Y55.792 E127.1635
G1 X148.397 Y55.469 E127.2762
G1 X148.871 Y55.287 E127.3606
G1 X149.233 Y55.187 E127.4231
G1 X149.758 Y55.094 E127.5117
G1 X150.332 Y55.060 E127.6074
G1 X154.779 Y55.063 E128.3469
G1 X155.150 Y55.084 E128.4087
G1 X155.685 Y55.165 E128.4987
G1 X156.180 Y55.300 E128.5840
G1 X156.811 Y55.564 E128.6978
G1 X157.255 Y55.822 E128.7832
G1 X157.664 Y56.125 E128.8678
G1 X158.047 Y56.482 E128.9549
G1 X158.295 Y56.764 E129.0173
G1 X158.676 Y57.310 E129.1281
G1 X158.918 Y57.775 E129.2152
G1 X159.100 Y58.249 E129.2997
G1 X159.200 Y58.611 E129.3621
G1 X159.293 Y59.133 E129.4503
G1 X159.327 Y59.697 E129.5443
G1 X159.328 Y60.561 E129.6880
G1 X159.303 Y61.098 E129.7774
G1 X159.191 Y61.760 E129.8890
G1 X159.041 Y62.245 E129.9734
G0 F6000 X153.352 Y127.317
G1 F960 X154.408 Y127.418 E130.1498
G1 X155.196 Y127.541 E130.2825
G1 X155.807 Y127.670 E130.3863
G1 X157.034 Y128.012 E130.5982
G1 X157.907 Y128.329 E130.7526
G1 X158.788 Y128.714 E130.9125
G1 X159.676 Y129.177 E131.0790
G1 X160.442 Y129.640 E131.2279
G1 X160.978 Y130.005 E131.3357
G1 X161.714 Y130.566 E131.4896
G1 X162.685 Y131.430 E131.7058
G1 X163.148 Y131.903 E131.8159
G1 X163.982 Y132.875 E132.0288
G1 X164.365 Y133.384 E132.1348
G1 X164.877 Y134.148 E132.2877
G1 X165.358 Y134.978 E132.4473
G1 X165.912 Y136.125 E132.6591
G1 X166.164 Y136.751 E132.7713
G1 X166.552 Y137.932 E132.9780
G1 X166.772 Y138.823 E133.1307
G1 X166.900 Y139.495 E133.2444
G1 X167.052 Y140.741 E133.4532
G1 X167.096 Y141.671 E133.6080
G1 X167.091 Y142.339 E133.7191
G1 X167.036 Y143.228 E133.8672
G1 X166.992 Y143.643 E133.9366
G1 X166.859 Y144.520 E134.0841
G1 X166.718 Y145.196 E134.1990
G1 X166.372 Y146.435 E134.4129
G1 X166.061 Y147.293 E134.5647
G1 X165.810 Y147.883 E134.6713
G1 X165.393 Y148.733 E134.8288
G1 X164.879 Y149.618 E134.9990
G1 X164.412 Y150.324 E135.1397
G1 X163.814 Y151.114 E135.3045
